svg/roller_shade_closed.svg

<svg xmlns="http://www.w3.org/2000/svg" viewBox="0 0 24 24"><path d="M20 19V3H4v16H2v2h8.25c0 .97.78 1.75 1.75 1.75s1.75-.78 1.75-1.75H22v-2zM6 19v-2h5v2zm7 0v-2h5v2z"/></svg>

<svg xmlns="http://www.w3.org/2000/svg" id="mdi-roller-shade-closed" viewBox="0 0 24 24"><path d="M20 19V3H4V19H2V21H10.25C10.25 21.97 11.03 22.75 12 22.75S13.75 21.97 13.75 21H22V19H20M6 19V17H11V19H6M13 19V17H18V19H13Z" /></svg>
